dist/img/icons/galaxy-store.svg

<svg width="16" height="16" viewBox="0 0 16 16" fill="none" xmlns="http://www.w3.org/2000/svg">
<g clip-path="url(#clip0_2387_799)">
<path d="M6.83415 5.9696L6.80077 6.09995H9.20076L9.16743 5.9696C9.16743 5.32645 8.64409 4.80322 8.00071 4.80322C7.35749 4.80322 6.83415 5.32645 6.83415 5.9696Z" fill="#0B002E"/>
<path fill-rule="evenodd" clip-rule="evenodd" d="M0.952833 5.04554C0.799805 5.68294 0.799805 6.4553 0.799805 8C0.799805 9.54471 0.799805 10.3171 0.952833 10.9545C1.43902 12.9796 3.02021 14.5608 5.04534 15.047C5.68275 15.2 6.4551 15.2 7.9998 15.2C9.54451 15.2 10.3169 15.2 10.9543 15.047C12.9794 14.5608 14.5606 12.9796 15.0468 10.9545C15.1998 10.3171 15.1998 9.54471 15.1998 8C15.1998 6.4553 15.1998 5.68294 15.0468 5.04554C14.5606 3.0204 12.9794 1.43922 10.9543 0.953031C10.3169 0.800003 9.54451 0.800003 7.9998 0.800003C6.4551 0.800003 5.68275 0.800003 5.04534 0.953031C3.02021 1.43922 1.43902 3.0204 0.952833 5.04554ZM10.0711 5.9696L10.1008 6.09995H11.8008L11.3425 10.372C11.2507 11.2408 10.5179 11.9002 9.6441 11.9002H6.35739C5.48357 11.9002 4.75078 11.2408 4.659 10.3719L4.20077 6.09995H5.90077L5.93044 5.9696C5.93044 4.82822 6.85915 3.8997 8.00071 3.8997C9.14232 3.8997 10.0711 4.82822 10.0711 5.9696Z" fill="#0B002E"/>
</g>
<defs>
<clipPath id="clip0_2387_799">
<rect width="16" height="16" fill="white"/>
</clipPath>
</defs>
</svg>

<svg width="16" height="16" viewBox="0 0 16 16" fill="none" xmlns="http://www.w3.org/2000/svg"><g clip-path="url(#clip0_2387_799)" fill="#0B002E"><path d="M6.834 5.97l-.033.13h2.4l-.034-.13a1.168 1.168 0 00-2.333 0z"/><path fill-rule="evenodd" clip-rule="evenodd" d="M.953 5.046C.8 5.683.8 6.456.8 8c0 1.545 0 2.317.153 2.954a5.539 5.539 0 004.092 4.093c.638.153 1.41.153 2.955.153 1.545 0 2.317 0 2.954-.153a5.539 5.539 0 004.093-4.093c.153-.637.153-1.41.153-2.954 0-1.545 0-2.317-.153-2.954A5.539 5.539 0 0010.954.953C10.317.8 9.544.8 8 .8 6.455.8 5.683.8 5.045.953A5.538 5.538 0 00.953 5.046zm9.118.924l.03.13h1.7l-.459 4.272A1.708 1.708 0 019.644 11.9H6.357c-.873 0-1.606-.66-1.698-1.528L4.201 6.1h1.7l.03-.13c0-1.142.928-2.07 2.07-2.07 1.141 0 2.07.928 2.07 2.07z"/></g><defs><clipPath id="clip0_2387_799"><path fill="#fff" d="M0 0h16v16H0z"/></clipPath></defs></svg>
